X:1
T:Title
%%score { 1 | 2 }
L:1/8
M:4/4
K:G
V:1 treble nm="Grand Piano"
V:2 treble 
V:1
 z4 z2[Q:1/4=100] G>A | B B3 BB G>B | d4 B2 BB | [Ac]2 [Ac]2 B2 G2 | [FA]6 [^DB]>[DA] | %5
 [EG]3 [EG] [EA][EG][DF][CE] | [B,D]4 [B,G]2 [DG]>[EA] | [DB]2 [GB]2 [FB]3 [CDA] | [B,DG]6 z2 | %9
 [Ge]3 [Gd] [Gc]2 [Ge]2 | [Gd]4 [GB]2 z2 | [Ac]3 [GB] [FA]2 [Fd]2 | B6 z2 | G3 A B2 d2 | %14
 [Ec]3 [=Fd] [Ge]4 | [Gd]3 [Gc] [DGB]2 [CFA]2 |[M:3/4] [B,G]6 |] %17
V:2
 z4 z2 [G,B,]>[G,CG] | [G,DG] [G,DG]3 [G,DG][G,DG] [G,B,]>[G,DG] | [G,B,G]4 [G,DG]2 [G,DG][G,DG] | %3
 [F,D]2 [F,D]2 [G,DG]2 [E,^C]2 | [D,D]6 [B,,B,]>[B,,B,] | [E,B,]3 [E,B,] [C,C][C,C][C,G,][C,G,] | %6
 [G,,G,]4 [G,,G,]2 [B,,G,]>[C,G,] | [D,G,]2 [D,D]2 [D,D]3 D, | G,,6 z2 | %9
 [C,C]3 [D,B,] [E,C]2 [C,C]2 | [G,B,]4 [G,D]2 z2 | [D,D]3 [E,D] [F,D]2 [D,D]2 | [G,DG]6 z2 | %13
 [G,B,]3 [G,CG] [G,DG]2 [G,B,=F]2 | [C,C]4 [C,C]4 | [D,B,]3 [D,A,] D,2 D,2 |[M:3/4] G,,6 |] %17

